X:1
T: Callaghan's Canter
C: John Hazell
R: Jig
L: 1/8
M: 6/8
K: G
|:D|"G"G2G G2G|"D"F2G A3|"C"c3 "G"B3|"D"AGF "G"G2|
D|"G"G2G G2G|"D"F2G A2D|"C"E2E "D"FEF|"G"G3 G2:|
|:A|"G"B2G A2G|"G"B2G A2G|"C"c3 "G"B3|"D"AGF "G"G2|
A|"G"B2G A2G|"Em"B2G A2G|"D"F2F FGA|1"G"G3 G2:|2"G"G3 G||
|:AB|"C"c3 "G"B3|"D"A2G F3|z2"C"c- c2"G"B-|B2"D"A "G"G|
AB|"C"c3 "G"B3|"D"A2G F2D|"C"E2E "D"FEF|1"G"G3 G:|1"G"G3 G2||